icon/pk/open-one.svg

<svg viewBox="0 0 48 48" fill="none" xmlns="http://www.w3.org/2000/svg" height="1em" width="1em">
  <path d="M6 18V9C6 7.34315 7.34315 6 9 6H39C40.6569 6 42 7.34315 42 9V18" stroke="black" stroke-width="4" stroke-linecap="round" stroke-linejoin="round"/>
  <path d="M21 26L33 13" stroke="black" stroke-width="4" stroke-linecap="round" stroke-linejoin="round"/>
  <path d="M26 21L30 25" stroke="black" stroke-width="4" stroke-linecap="round" stroke-linejoin="round"/>
  <path d="M31 16L35 20" stroke="black" stroke-width="4" stroke-linecap="round" stroke-linejoin="round"/>
  <path d="M6 30V39C6 40.6569 7.34315 42 9 42H39C40.6569 42 42 40.6569 42 39V30" stroke="black" stroke-width="4" stroke-linecap="round" stroke-linejoin="round"/>
  <circle cx="18" cy="30" r="5" fill="#2F88FF" stroke="black" stroke-width="4" stroke-linecap="round" stroke-linejoin="round"/>
</svg>

<svg width="48" height="48" fill="none" xmlns="http://www.w3.org/2000/svg"><path d="M6 18V9a3 3 0 0 1 3-3h30a3 3 0 0 1 3 3v9M21 26l12-13M26 21l4 4M31 16l4 4M6 30v9a3 3 0 0 0 3 3h30a3 3 0 0 0 3-3v-9" stroke="#000" stroke-width="4" stroke-linecap="round" stroke-linejoin="round"/><circle cx="18" cy="30" r="5" fill="#2F88FF" stroke="#000" stroke-width="4" stroke-linecap="round" stroke-linejoin="round"/></svg>
